X:190
T:Newcastle Hornpipe. JGi.190
M:C|
L:1/8
Q:1/4=140
S:Joshua Gibbons MS,1823,Tealby,Lincs.
R:.hornpipe
O:Tealby,Lincolnshire
Z:VMP/R.Greig, 2009
K:G
gd|B2B2BcAF|G2G2GABc|dcdB edcB|BAcA GFED|
B2B2Bd^ce|d2d2d2cB|AdcB AGFE|D2D2D2:|
ABc2c2c2AB|cBAG FEDC|b,2d2d2ef|gfed cBAG|
e2e2 efge|dcBcd2Hg2|egec BGAF|G2G2G2:|

